teeny/outline/calculator.svg

<svg width="15" height="15" viewBox="0 0 15 15" fill="none" xmlns="http://www.w3.org/2000/svg">
<path d="M4 4.5H11M4 8.5H5M7 8.5H8M10 8.5H11M4 11.5H5M7 11.5H8M10 11.5H11M2.5 14.5H12.5C13.0523 14.5 13.5 14.0523 13.5 13.5V1.5C13.5 0.947715 13.0523 0.5 12.5 0.5H2.5C1.94772 0.5 1.5 0.947716 1.5 1.5V13.5C1.5 14.0523 1.94772 14.5 2.5 14.5Z" stroke="black"/>
</svg>

<svg viewBox="0 0 15 15" xmlns="http://www.w3.org/2000/svg"><path fill="none" stroke="#000" d="M4 4.5h7m-7 4h1m2 0h1m2 0h1m-7 3h1m2 0h1m2 0h1m-8.5 3h10c.55 0 1-.45 1-1v-12c0-.56-.45-1-1-1h-10c-.56 0-1 .44-1 1v12c0 .55.44 1 1 1Z"/></svg>
